;FLAVOR:Marlin
;TIME:1487
;Filament used: 1.48572m
;Layer height: 0.15
;MINX:69.7
;MINY:88.7
;MINZ:0.3
;MAXX:130.3
;MAXY:111.3
;MAXZ:30
;Generated with Cura_SteamEngine 4.5.0
M140 S60
M105
M190 S60
M104 S180
M105
M109 S180
M82 ;absolute extrusion mode
G21 ;metric values
G90 ;absolute positioning
M82 ;set extruder to absolute mode
M107 ;start with the fan off
G28 X0 Y0 ;move X/Y to min endstops
G28 Z0 ;move Z to min endstops
G1 Z15.0 F9000 ;move the platform down 15mm
G92 E0 ;zero the extruded length
G1 F200 E3 ;extrude 3mm of feed stock
G92 E0 ;zero the extruded length again
G1 F9000
;Put printing message on LCD screen
M117 Printing...
G92 E0
G92 E0
G1 F1500 E-6.5
;LAYER_COUNT:199
;LAYER:0
M107
G0 F3600 X73.51 Y91.001 Z0.3
;TYPE:SKIRT
G1 F1500 E0
G1 F1800 X74.3 Y90.435 E0.04848
G1 X74.776 Y90.137 E0.0765
G1 X75.466 Y89.752 E0.11592
G1 X76.344 Y89.384 E0.16342
G1 X76.874 Y89.199 E0.19142
G1 X77.632 Y88.977 E0.23083
G1 X78.567 Y88.813 E0.27819
G1 X79.123 Y88.75 E0.30611
G1 X80.001 Y88.7 E0.34998
G1 X82.5 Y88.7 E0.47466
G1 X83.289 Y88.74 E0.51407
G1 X84.069 Y88.859 E0.55343
G1 X84.834 Y89.057 E0.59286
G1 X85.574 Y89.331 E0.63223
G1 X86.283 Y89.679 E0.67163
G1 X86.954 Y90.097 E0.71107
G1 X87.578 Y90.58 E0.75044
G1 X88.151 Y91.123 E0.78982
G1 X88.666 Y91.722 E0.82923
G1 X89.117 Y92.37 E0.86862
G1 X89.501 Y93.061 E0.90806
G1 X89.776 Y93.7 E0.94277
G1 X110.23 Y93.7 E1.96322
G1 X110.679 Y92.717 E2.01714
G1 X111.097 Y92.046 E2.05658
G1 X111.58 Y91.422 E2.09595
G1 X112.123 Y90.849 E2.13533
G1 X112.722 Y90.334 E2.17474
G1 X113.37 Y89.883 E2.21413
G1 X114.061 Y89.499 E2.25357
G1 X114.786 Y89.187 E2.29295
G1 X115.539 Y88.95 E2.33233
G1 X116.313 Y88.791 E2.37175
G1 X117.098 Y88.71 E2.41112
G1 X119.488 Y88.7 E2.53036
G1 X120.344 Y88.747 E2.57313
G1 X121.023 Y88.822 E2.60721
G1 X121.803 Y88.948 E2.64663
G1 X122.741 Y89.212 E2.69525
G1 X123.376 Y89.434 E2.72881
G1 X124.107 Y89.732 E2.76819
G1 X124.959 Y90.197 E2.81662
G1 X125.529 Y90.556 E2.85023
G1 X126.175 Y91.01 E2.88962
G1 X126.887 Y91.641 E2.93708
G1 X127.359 Y92.113 E2.97038
G1 X127.889 Y92.699 E3.0098
G1 X128.444 Y93.471 E3.05724
G1 X128.803 Y94.041 E3.09085
G1 X129.19 Y94.73 E3.13027
G1 X129.565 Y95.621 E3.1785
G1 X129.788 Y96.258 E3.21217
G1 X130.011 Y97.015 E3.25154
G1 X130.179 Y97.978 E3.30031
G1 X130.252 Y98.638 E3.33344
G1 X130.299 Y99.492 E3.37611
G1 X130.3 Y102.49 E3.52568
G1 X130.255 Y103.332 E3.56775
G1 X130.105 Y104.343 E3.61874
G1 X129.902 Y105.106 E3.65813
G1 X129.5 Y106.114 E3.71227
G1 X128.928 Y107.207 E3.77382
G1 X128.481 Y107.858 E3.81322
G1 X127.797 Y108.639 E3.86501
G1 X127.052 Y109.328 E3.91564
G1 X126.416 Y109.795 E3.955
G1 X125.498 Y110.315 E4.00764
G1 X124.37 Y110.812 E4.06914
G1 X123.615 Y111.042 E4.10851
G1 X122.84 Y111.195 E4.14792
G1 X121.728 Y111.275 E4.20355
G1 X78.721 Y111.3 E6.34917
G1 X77.834 Y111.262 E6.39347
G1 X77.048 Y111.178 E6.4329
G1 X76.276 Y111.014 E6.47228
G1 X75.524 Y110.773 E6.51168
G1 X74.909 Y110.51 E6.54505
G1 X73.816 Y109.943 E6.60648
G1 X73.164 Y109.498 E6.64586
G1 X72.363 Y108.799 E6.6989
G1 X71.673 Y108.053 E6.7496
G1 X71.206 Y107.417 E6.78896
G1 X70.69 Y106.507 E6.84115
G1 X70.191 Y105.378 E6.90273
G1 X69.96 Y104.623 E6.94213
G1 X69.807 Y103.848 E6.98154
G1 X69.727 Y102.882 E7.0299
G1 X69.702 Y101.659 E7.09092
G1 X69.7 Y99.001 E7.22353
G1 X69.748 Y98.133 E7.2669
G1 X69.81 Y97.579 E7.29471
G1 X69.938 Y96.8 E7.3341
G1 X70.199 Y95.873 E7.38215
G1 X70.385 Y95.341 E7.41026
G1 X70.683 Y94.609 E7.44969
G1 X71.137 Y93.776 E7.49702
G1 X71.435 Y93.3 E7.52504
G1 X71.887 Y92.653 E7.56442
G1 X72.531 Y91.924 E7.61295
G1 X72.924 Y91.531 E7.64067
G1 X73.51 Y91.001 E7.68009
G0 F3600 X73.778 Y91.299
G1 F1800 X74.512 Y90.774 E7.72512
G1 X74.988 Y90.476 E7.75313
G1 X75.661 Y90.102 E7.79155
G1 X76.476 Y89.761 E7.83562
G1 X77.006 Y89.576 E7.86363
G1 X77.745 Y89.361 E7.90203
G1 X78.612 Y89.21 E7.94593
G1 X79.168 Y89.147 E7.97385
G1 X80.001 Y89.1 E8.01547
G1 X82.5 Y89.1 E8.14015
G1 X83.268 Y89.14 E8.17852
G1 X84.028 Y89.259 E8.21689
G1 X84.771 Y89.457 E8.25526
G1 X85.49 Y89.731 E8.29364
G1 X86.176 Y90.078 E8.332
G1 X86.823 Y90.494 E8.37037
G1 X87.423 Y90.975 E8.40874
G1 X87.97 Y91.516 E8.44712
G1 X88.458 Y92.111 E8.48551
G1 X88.881 Y92.753 E8.52387
G1 X89.236 Y93.436 E8.56227
G1 X89.497 Y94.1 E8.59787
G1 X110.506 Y94.1 E9.64601
G1 X110.731 Y93.51 E9.67751
G1 X111.078 Y92.824 E9.71587
G1 X111.494 Y92.177 E9.75424
G1 X111.975 Y91.577 E9.79261
G1 X112.516 Y91.03 E9.83099
G1 X113.111 Y90.542 E9.86938
G1 X113.753 Y90.119 E9.90774
G1 X114.436 Y89.764 E9.94614
G1 X115.151 Y89.483 E9.98447
G1 X115.893 Y89.277 E10.02289
G1 X116.651 Y89.149 E10.06124
G1 X117.5 Y89.1 E10.10367
G1 X119.488 Y89.1 E10.20285
G1 X120.3 Y89.145 E10.24342
G1 X120.979 Y89.22 E10.27751
G1 X121.739 Y89.344 E10.31592
G1 X122.609 Y89.59 E10.36103
G1 X123.244 Y89.812 E10.39459
G1 X123.956 Y90.103 E10.43296
G1 X124.746 Y90.535 E10.47789
G1 X125.316 Y90.894 E10.51149
G1 X125.944 Y91.338 E10.54986
G1 X126.605 Y91.923 E10.5939
G1 X127.077 Y92.395 E10.6272
G1 X127.591 Y92.967 E10.66557
G1 X128.106 Y93.684 E10.70961
G1 X128.465 Y94.254 E10.74322
G1 X128.84 Y94.926 E10.78161
G1 X129.187 Y95.753 E10.82636
G1 X129.41 Y96.39 E10.86003
G1 X129.626 Y97.128 E10.89839
G1 X129.781 Y98.021 E10.94361
G1 X129.854 Y98.681 E10.97674
G1 X129.899 Y99.493 E11.01731
G1 X129.9 Y102.491 E11.16688
G1 X129.857 Y103.289 E11.20675
G1 X129.71 Y104.28 E11.25673
G1 X129.509 Y105.022 E11.29509
G1 X129.14 Y105.94 E11.34445
G1 X128.577 Y107.014 E11.40495
G1 X128.139 Y107.647 E11.44335
G1 X127.515 Y108.357 E11.49051
G1 X126.784 Y109.03 E11.54008
G1 X126.162 Y109.483 E11.57847
G1 X125.325 Y109.954 E11.62638
G1 X124.215 Y110.443 E11.6869
G1 X123.479 Y110.664 E11.72524
G1 X122.723 Y110.807 E11.76362
G1 X121.727 Y110.875 E11.81343
G1 X78.72 Y110.9 E13.95906
G1 X77.856 Y110.863 E14.0022
G1 X77.092 Y110.779 E14.04055
G1 X76.34 Y110.617 E14.07893
G1 X75.609 Y110.377 E14.11731
G1 X75.082 Y110.15 E14.14594
G1 X74.007 Y109.591 E14.20639
G1 X73.374 Y109.155 E14.24474
G1 X72.645 Y108.517 E14.29307
G1 X71.971 Y107.785 E14.34271
G1 X71.518 Y107.163 E14.3811
G1 X71.05 Y106.333 E14.42864
G1 X70.56 Y105.223 E14.48917
G1 X70.338 Y104.486 E14.52757
G1 X70.194 Y103.731 E14.56592
G1 X70.127 Y102.874 E14.6088
G1 X70.102 Y101.651 E14.66983
G1 X70.1 Y99.001 E14.80204
G1 X70.146 Y98.178 E14.84317
G1 X70.208 Y97.624 E14.87098
G1 X70.333 Y96.865 E14.90935
G1 X70.577 Y96.005 E14.95395
G1 X70.763 Y95.473 E14.98207
G1 X71.054 Y94.761 E15.02044
G1 X71.476 Y93.988 E15.06438
G1 X71.774 Y93.512 E15.0924
G1 X72.215 Y92.882 E15.13077
G1 X72.813 Y92.206 E15.17579
G1 X73.206 Y91.813 E15.20352
G1 X73.778 Y91.299 E15.24189
G0 F3600 X74.046 Y91.596
G1 F1800 X74.725 Y91.113 E15.28346
G1 X75.201 Y90.815 E15.31148
G1 X75.855 Y90.452 E15.34879
G1 X76.608 Y90.139 E15.38948
G1 X77.138 Y89.954 E15.41748
G1 X77.857 Y89.746 E15.45483
G1 X78.657 Y89.608 E15.49533
G1 X79.213 Y89.545 E15.52324
G1 X80.001 Y89.5 E15.56262
G1 X82.5 Y89.5 E15.6873
G1 X83.247 Y89.54 E15.72462
G1 X83.985 Y89.659 E15.76191
G1 X84.707 Y89.857 E15.79926
G1 X85.403 Y90.13 E15.83656
G1 X86.066 Y90.477 E15.8739
G1 X86.689 Y90.892 E15.91124
G1 X87.263 Y91.371 E15.94854
G1 X87.784 Y91.908 E15.98587
G1 X88.243 Y92.498 E16.02316
G1 X88.638 Y93.134 E16.06052
G1 X88.962 Y93.808 E16.09782
G1 X89.207 Y94.5 E16.13445
G1 X110.8 Y94.5 E17.21173
G1 X111.13 Y93.597 E17.25969
G1 X111.477 Y92.934 E17.29703
G1 X111.892 Y92.311 E17.33437
G1 X112.371 Y91.737 E17.37167
G1 X112.908 Y91.216 E17.409
G1 X113.498 Y90.757 E17.44629
G1 X114.134 Y90.362 E17.48364
G1 X114.808 Y90.038 E17.52095
G1 X115.513 Y89.788 E17.55827
G1 X116.241 Y89.614 E17.59562
G1 X116.983 Y89.519 E17.63294
G1 X117.5 Y89.5 E17.65875
G1 X119.488 Y89.5 E17.75793
G1 X120.257 Y89.542 E17.79635
G1 X120.936 Y89.617 E17.83043
G1 X121.674 Y89.739 E17.86775
G1 X122.477 Y89.967 E17.9094
G1 X123.112 Y90.189 E17.94296
G1 X123.804 Y90.473 E17.98028
G1 X124.533 Y90.874 E18.02178
G1 X125.103 Y91.233 E18.05539
G1 X125.713 Y91.665 E18.09268
G1 X126.322 Y92.206 E18.13332
G1 X126.794 Y92.678 E18.16663
G1 X127.294 Y93.235 E18.20397
G1 X127.767 Y93.897 E18.24456
G1 X128.126 Y94.467 E18.27817
G1 X128.49 Y95.121 E18.31551
G1 X128.81 Y95.885 E18.35683
G1 X129.033 Y96.522 E18.39051
G1 X129.242 Y97.24 E18.42781
G1 X129.384 Y98.065 E18.46958
G1 X129.457 Y98.725 E18.50271
G1 X129.499 Y99.493 E18.54108
G1 X129.5 Y102.491 E18.69065
G1 X129.459 Y103.246 E18.72837
G1 X129.314 Y104.216 E18.7773
G1 X129.116 Y104.937 E18.81461
G1 X128.779 Y105.766 E18.85925
G1 X128.226 Y106.821 E18.91868
G1 X127.797 Y107.435 E18.95605
G1 X127.232 Y108.074 E18.9986
G1 X126.516 Y108.733 E19.04715
G1 X125.91 Y109.17 E19.08443
G1 X125.152 Y109.594 E19.12776
G1 X124.061 Y110.073 E19.1872
G1 X123.344 Y110.285 E19.2245
G1 X122.608 Y110.419 E19.26183
G1 X121.727 Y110.475 E19.30587
G1 X78.72 Y110.5 E21.4515
G1 X77.879 Y110.464 E21.49349
G1 X77.135 Y110.381 E21.53084
G1 X76.405 Y110.22 E21.56814
G1 X75.696 Y109.982 E21.60545
G1 X74.856 Y109.598 E21.65153
G1 X74.199 Y109.239 E21.68888
G1 X73.585 Y108.813 E21.72616
G1 X72.928 Y108.234 E21.76985
G1 X72.268 Y107.517 E21.81847
G1 X71.831 Y106.911 E21.85575
G1 X71.411 Y106.16 E21.89868
G1 X70.93 Y105.068 E21.95821
G1 X70.717 Y104.351 E21.99552
G1 X70.582 Y103.615 E22.03285
G1 X70.526 Y102.866 E22.07033
G1 X70.501 Y101.643 E22.13136
G1 X70.5 Y99.001 E22.26317
G1 X70.543 Y98.222 E22.30209
G1 X70.605 Y97.668 E22.3299
G1 X70.728 Y96.931 E22.36718
G1 X70.954 Y96.137 E22.40836
G1 X71.14 Y95.605 E22.43648
G1 X71.424 Y94.913 E22.4738
G1 X71.815 Y94.201 E22.51433
G1 X72.113 Y93.725 E22.54234
G1 X72.543 Y93.113 E22.57966
G1 X73.096 Y92.489 E22.62126
G1 X73.489 Y92.096 E22.64898
G1 X74.046 Y91.596 E22.68633
G0 F3600 X74.313 Y91.895
G1 F1800 X74.937 Y91.452 E22.72451
G1 X75.413 Y91.154 E22.75252
G1 X76.049 Y90.803 E22.78877
G1 X76.74 Y90.517 E22.82608
G1 X77.27 Y90.332 E22.85408
G1 X77.968 Y90.13 E22.89033
G1 X78.702 Y90.005 E22.92748
G1 X79.258 Y89.942 E22.9554
G1 X80.001 Y89.9 E22.99253
G1 X82.5 Y89.9 E23.1172
G1 X83.225 Y89.94 E23.15343
G1 X83.942 Y90.059 E23.18969
G1 X84.641 Y90.257 E23.22593
G1 X85.314 Y90.53 E23.26217
G1 X85.953 Y90.875 E23.2984
G1 X86.55 Y91.289 E23.33464
G1 X87.098 Y91.765 E23.37085
G1 X87.591 Y92.299 E23.40711
G1 X88.021 Y92.884 E23.44334
G1 X88.385 Y93.513 E23.47959
G1 X88.678 Y94.178 E23.51585
G1 X88.896 Y94.871 E23.55209
G1 X88.902 Y94.9 E23.55357
G1 X111.104 Y94.9 E24.66123
G1 X111.257 Y94.359 E24.68928
G1 X111.53 Y93.686 E24.72551
G1 X111.875 Y93.047 E24.76174
G1 X112.289 Y92.45 E24.79799
G1 X112.765 Y91.902 E24.8342
G1 X113.299 Y91.409 E24.87046
G1 X113.884 Y90.979 E24.90668
G1 X114.513 Y90.615 E24.94294
G1 X115.178 Y90.322 E24.97919
G1 X115.871 Y90.104 E25.01544
G1 X116.583 Y89.964 E25.05164
G1 X117.5 Y89.9 E25.0975
G1 X119.488 Y89.9 E25.19668
G1 X120.213 Y89.94 E25.23291
G1 X120.892 Y90.015 E25.26699
G1 X121.608 Y90.134 E25.3032
G1 X122.345 Y90.345 E25.34145
G1 X122.98 Y90.567 E25.37501
G1 X123.652 Y90.844 E25.41127
G1 X124.319 Y91.212 E25.44928
G1 X124.889 Y91.571 E25.48288
G1 X125.482 Y91.992 E25.51917
G1 X126.039 Y92.489 E25.55641
G1 X126.511 Y92.961 E25.58971
G1 X126.995 Y93.502 E25.62593
G1 X127.429 Y94.111 E25.66324
G1 X127.788 Y94.681 E25.69684
G1 X128.14 Y95.316 E25.73307
G1 X128.432 Y96.017 E25.77095
G1 X128.655 Y96.654 E25.80462
G1 X128.857 Y97.352 E25.84087
G1 X128.986 Y98.109 E25.87919
G1 X129.059 Y98.769 E25.91231
G1 X129.099 Y99.493 E25.94849
G1 X129.1 Y102.491 E26.09806
G1 X129.062 Y103.203 E26.13363
G1 X128.919 Y104.151 E26.18146
G1 X128.723 Y104.85 E26.21768
G1 X128.419 Y105.592 E26.25769
G1 X127.875 Y106.628 E26.31607
G1 X127.456 Y107.221 E26.35229
G1 X126.949 Y107.791 E26.39035
G1 X126.249 Y108.434 E26.43777
G1 X125.658 Y108.857 E26.47403
G1 X124.979 Y109.233 E26.51275
G1 X123.908 Y109.703 E26.5711
G1 X123.21 Y109.905 E26.60736
G1 X122.495 Y110.03 E26.64357
G1 X121.727 Y110.075 E26.68195
G1 X78.72 Y110.1 E28.82758
G1 X77.902 Y110.064 E28.86843
G1 X77.18 Y109.983 E28.90467
G1 X76.471 Y109.823 E28.94094
G1 X75.785 Y109.586 E28.97715
G1 X75.028 Y109.237 E29.01873
G1 X74.391 Y108.888 E29.05497
G1 X73.797 Y108.471 E29.09118
G1 X73.211 Y107.951 E29.13026
G1 X72.567 Y107.25 E29.17776
G1 X72.144 Y106.659 E29.21402
G1 X71.771 Y105.986 E29.2524
G1 X71.299 Y104.914 E29.31084
G1 X71.096 Y104.217 E29.34706
G1 X70.971 Y103.502 E29.38327
G1 X70.926 Y102.858 E29.41548
G1 X70.901 Y101.635 E29.47651
G1 X70.9 Y99.001 E29.60792
G1 X70.941 Y98.267 E29.64459
G1 X71.003 Y97.713 E29.67241
G1 X71.123 Y96.997 E29.70863
G1 X71.332 Y96.269 E29.74641
G1 X71.518 Y95.737 E29.77453
G1 X71.795 Y95.065 E29.81079
G1 X72.154 Y94.413 E29.84793
G1 X72.452 Y93.937 E29.87594
G1 X72.871 Y93.343 E29.91221
G1 X73.379 Y92.772 E29.95034
G1 X73.772 Y92.379 E29.97807
G1 X74.313 Y91.895 E30.01428
G0 F3600 X74.58 Y92.193
G1 F1800 X75.149 Y91.791 E30.04904
G1 X75.625 Y91.493 E30.07706
G1 X76.242 Y91.154 E30.11218
G1 X76.872 Y90.894 E30.14618
G1 X77.402 Y90.709 E30.17419
G1 X78.079 Y90.515 E30.20932
G1 X78.747 Y90.402 E30.24312
G1 X79.303 Y90.339 E30.27104
G1 X80.001 Y90.3 E30.30592
G1 X82.5 Y90.3 E30.43059
G1 X83.203 Y90.34 E30.46572
G1 X83.897 Y90.459 E30.50085
G1 X84.572 Y90.657 E30.53595
G1 X85.221 Y90.929 E30.57106
G1 X85.835 Y91.274 E30.60619
G1 X86.406 Y91.685 E30.64129
G1 X86.927 Y92.159 E30.67643
G1 X87.391 Y92.689 E30.71158
G1 X87.791 Y93.268 E30.74668
G1 X88.123 Y93.889 E30.78182
G1 X88.383 Y94.543 E30.81693
G1 X88.567 Y95.223 E30.85207
G1 X88.579 Y95.3 E30.85596
G1 X111.425 Y95.3 E31.99575
G1 X111.657 Y94.428 E32.04077
G1 X111.929 Y93.779 E32.07588
G1 X112.274 Y93.165 E32.11102
G1 X112.685 Y92.594 E32.14611
G1 X113.159 Y92.073 E32.18126
G1 X113.689 Y91.609 E32.2164
G1 X114.268 Y91.209 E32.25151
G1 X114.889 Y90.877 E32.28664
G1 X115.543 Y90.617 E32.32175
G1 X116.223 Y90.433 E32.3569
G1 X116.919 Y90.327 E32.39202
G1 X117.5 Y90.3 E32.42104
G1 X119.488 Y90.3 E32.52022
G1 X120.169 Y90.337 E32.55425
G1 X120.848 Y90.412 E32.58833
G1 X121.542 Y90.529 E32.62344
G1 X122.213 Y90.722 E32.65827
G1 X122.848 Y90.944 E32.69183
G1 X123.498 Y91.214 E32.72695
G1 X124.106 Y91.551 E32.76163
G1 X124.676 Y91.91 E32.79524
G1 X125.25 Y92.318 E32.83037
G1 X125.756 Y92.772 E32.86429
G1 X126.228 Y93.244 E32.89759
G1 X126.697 Y93.769 E32.93271
G1 X127.09 Y94.324 E32.96664
G1 X127.449 Y94.894 E33.00025
G1 X127.79 Y95.51 E33.03537
G1 X128.055 Y96.149 E33.06989
G1 X128.278 Y96.786 E33.10356
G1 X128.472 Y97.463 E33.13869
G1 X128.588 Y98.153 E33.1736
G1 X128.661 Y98.813 E33.20673
G1 X128.699 Y99.493 E33.24071
G1 X128.7 Y102.491 E33.39028
G1 X128.664 Y103.16 E33.4237
G1 X128.524 Y104.086 E33.47043
G1 X128.33 Y104.762 E33.50551
G1 X128.059 Y105.418 E33.54092
G1 X127.525 Y106.434 E33.59819
G1 X127.116 Y107.007 E33.63331
G1 X126.666 Y107.508 E33.66691
G1 X125.982 Y108.136 E33.71323
G1 X125.407 Y108.542 E33.74835
G1 X124.806 Y108.872 E33.78256
G1 X123.755 Y109.333 E33.83981
G1 X123.078 Y109.525 E33.87492
G1 X122.383 Y109.64 E33.91007
G1 X121.727 Y109.675 E33.94284
G1 X78.72 Y109.7 E36.08847
G1 X77.924 Y109.665 E36.12822
G1 X77.225 Y109.585 E36.16332
G1 X76.539 Y109.426 E36.19845
G1 X75.6 Y109.067 E36.24861
G1 X74.584 Y108.537 E36.30578
G1 X74.01 Y108.13 E36.34088
G1 X73.494 Y107.668 E36.37544
G1 X72.865 Y106.983 E36.42183
G1 X72.459 Y106.408 E36.45695
G1 X72.131 Y105.813 E36.49085
G1 X71.67 Y104.761 E36.54815
G1 X71.476 Y104.084 E36.58329
G1 X71.361 Y103.39 E36.61838
G1 X71.326 Y102.85 E36.64538
G1 X71.301 Y101.627 E36.70641
G1 X71.3 Y99.001 E36.83742
G1 X71.338 Y98.311 E36.8719
G1 X71.4 Y97.757 E36.89971
G1 X71.518 Y97.063 E36.93483
G1 X71.709 Y96.401 E36.9692
G1 X71.895 Y95.869 E36.99732
G1 X72.165 Y95.219 E37.03243
G1 X72.493 Y94.625 E37.06629
G1 X72.791 Y94.149 E37.09431
G1 X73.198 Y93.575 E37.12941
G1 X73.662 Y93.055 E37.16418
G1 X74.055 Y92.662 E37.19191
G1 X74.58 Y92.193 E37.22703
G0 F3600 X74.847 Y92.492
G1 F1800 X75.361 Y92.13 E37.25839
G1 X75.837 Y91.832 E37.28641
G1 X76.435 Y91.505 E37.32042
G1 X77.004 Y91.272 E37.35109
G1 X77.534 Y91.087 E37.3791
G1 X78.188 Y90.901 E37.41302
G1 X78.792 Y90.8 E37.44357
G1 X79.348 Y90.737 E37.47149
G1 X80.001 Y90.7 E37.50412
